src/icons/svgs/16/envelope.svg

<svg width="16" height="16" viewBox="0 0 16 16" fill="none" xmlns="http://www.w3.org/2000/svg">
<path d="M8 10.25C7.54801 10.25 7.09602 10.0947 6.71047 9.77992L1 5.12812V11.625C1 12.3841 1.58762 13 2.3125 13H13.6875C14.4124 13 15 12.3844 15 11.625V5.12812L9.29063 9.78307C8.90508 10.0953 8.45117 10.25 8 10.25ZM1.44543 4.32891L7.24777 9.05833C7.69047 9.41927 8.31062 9.41927 8.75332 9.05833L14.5557 4.32891C14.8113 4.09974 15 3.7474 15 3.375C15 2.6156 14.4121 2 13.6875 2H2.3125C1.58762 2 1 2.6156 1 3.375C1 3.7474 1.16434 4.09974 1.44543 4.32891Z" fill="black"/>
</svg>

<svg width="16" height="16" viewBox="0 0 16 16" xmlns="http://www.w3.org/2000/svg">
    <path d="M8 10.25a2.03 2.03 0 0 1-1.29-.47L1 5.128v6.497C1 12.385 1.588 13 2.313 13h11.374c.725 0 1.313-.616 1.313-1.375V5.128L9.29 9.783A2.045 2.045 0 0 1 8 10.25ZM1.445 4.329l5.803 4.73c.442.36 1.063.36 1.505 0l5.803-4.73c.255-.23.444-.582.444-.954C15 2.615 14.412 2 13.687 2H2.313C1.587 2 1 2.616 1 3.375c0 .372.164.725.445.954Z"/>
</svg>
